assets/symbols/mulberry/deep.svg

<svg height="850.394" viewBox="0 0 850.394 850.394" width="850.394" xmlns="http://www.w3.org/2000/svg"><path d="m232.31 331.47h489.02v86.4l-588.51 239.88v-326.28h3.05z" fill="#a8d7f4"/><g fill="none"><g stroke="#231f20" stroke-width="21"><path d="m78.95 267.44h53.87v390.31l588.51-239.88v-149.92h49.11m-634.57 63.52h585.46m-489.02 91.86v-199.98"/><path d="m285.06 370.57-52.81 67.62-52.75-67.48"/></g><path d="m0 0h850.394v850.394h-850.394z"/></g></svg>

<svg xmlns="http://www.w3.org/2000/svg" width="850.394" height="850.394" viewBox="0 0 850.394 850.394" overflow="visible"><path fill="#a8d7f4" d="M232.31 331.47h489.02v86.4L132.82 657.75V331.47h3.05z"/><g fill="none" stroke="#231f20" stroke-width="21"><path d="M78.95 267.44h53.87V657.75l588.51-239.88V267.95h49.11M135.87 331.47h585.46M232.31 423.33V223.35"/><path d="M285.06 370.57l-52.81 67.62-52.75-67.48"/></g><path fill="none" d="M0 0h850.394v850.394H0z"/></svg>
